src/categories-icons-sprite/categories/svg-cat-prod-snacks.svg

<svg width="31" height="36" viewBox="0 0 31 36" fill="none" xmlns="http://www.w3.org/2000/svg">
<path class="p-FF9100" d="M28.1826 5.06506L19.2875 2.7959H8.21404L2.72268 5.06506C1.6561 7.08461 0.703125 8.99063 0.703125 13.5517V21.5392C0.703125 26.3271 1.61086 27.7567 2.72268 30.0258L8.75857 32.295H21.3524L28.1826 30.0258C29.2945 27.7567 30.2021 26.3271 30.2021 21.5392V13.5517C30.2022 10.6698 29.7711 7.60652 28.1826 5.06506Z" fill="#58ADE5"/>
<path class="p-FF641A" d="M30.2027 13.5517V21.5392C30.2027 26.3271 29.2949 27.7567 28.1831 30.0258L21.3529 32.295H15.4531V2.7959H19.288L28.1831 5.06506C29.7715 7.60652 30.2027 10.6698 30.2027 13.5517Z" fill="#4D98CB"/>
<path class="p-FFB64C" d="M0 0L2.72299 5.06512H28.183L30.906 0H0Z" fill="#A1D1FD"/>
<path class="p-FFB64C" d="M28.183 30.0259H2.72299L0 36H30.906L28.183 30.0259Z" fill="#A1D1FD"/>
<path class="p-FFB64C" d="M21.1263 15.2763C21.1263 16.3882 20.6952 17.4773 19.8556 18.3851L16.2475 20.5181C15.9979 20.5861 15.7257 20.6542 15.4534 20.6997C14.7273 20.8812 13.9784 20.9493 13.1842 20.9493C8.73662 20.9493 5.24219 18.4532 5.24219 15.2764C5.24219 12.0995 8.73662 9.60352 13.1842 9.60352C13.9784 9.60352 14.75 9.69421 15.4534 9.83036C18.7665 10.511 21.1263 12.6667 21.1263 15.2763Z" fill="#A1D1FD"/>
<path class="p-FFD396" d="M19.9913 16.4109C18.1305 16.4109 16.4741 17.137 15.4529 18.2489C14.7268 18.9978 14.3184 19.9508 14.3184 20.9492C14.3184 21.9703 14.7495 22.9007 15.4529 23.6722C16.4968 24.7613 18.1305 25.4875 19.9913 25.4875C23.1227 25.4875 25.6642 23.4452 25.6642 20.9492C25.6642 18.4531 23.1227 16.4109 19.9913 16.4109Z" fill="#B9DFFC"/>
<path class="p-FF9100" d="M16.2473 20.5181C15.9976 20.5861 15.7254 20.6543 15.4531 20.6997V9.83032C18.7662 10.5111 21.126 12.6668 21.126 15.2764C21.126 16.3883 20.6949 17.4774 19.8553 18.3851L16.2473 20.5181Z" fill="#58ADE5"/>
<path class="p-FF9100" d="M28.1831 30.0259L30.9061 36H15.4531V30.0259H28.1831Z" fill="#58ADE5"/>
<path class="p-FF9100" d="M28.1831 5.06512H15.4531V0H30.9061L28.1831 5.06512Z" fill="#58ADE5"/>
<path class="p-FFB64C" d="M25.6643 20.9492C25.6643 23.4452 23.1229 25.4875 19.9914 25.4875C18.1307 25.4875 16.497 24.7614 15.4531 23.6722V18.2489C16.4742 17.137 18.1307 16.4109 19.9914 16.4109C23.1229 16.4109 25.6643 18.4531 25.6643 20.9492Z" fill="#5FBEFF"/>
</svg>

<svg width="31" height="36" fill="none" xmlns="http://www.w3.org/2000/svg"><path class="p-FF9100" d="M28.183 5.065l-8.895-2.27H8.214l-5.491 2.27C1.656 7.085.703 8.991.703 13.552v7.987c0 4.788.908 6.218 2.02 8.487l6.036 2.269h12.593l6.83-2.27c1.113-2.268 2.02-3.698 2.02-8.486v-7.987c0-2.882-.43-5.945-2.02-8.487z" fill="#58ADE5"/><path class="p-FF641A" d="M30.203 13.552v7.987c0 4.788-.908 6.218-2.02 8.487l-6.83 2.269h-5.9v-29.5h3.835l8.895 2.27c1.588 2.542 2.02 5.605 2.02 8.487z" fill="#4D98CB"/><path class="p-FFB64C" d="M0 0l2.723 5.065h25.46L30.906 0H0zM28.183 30.026H2.723L0 36h30.906l-2.723-5.974zM21.126 15.276c0 1.112-.43 2.201-1.27 3.11l-3.609 2.132c-.25.068-.521.136-.794.182-.726.181-1.475.25-2.269.25-4.447 0-7.942-2.497-7.942-5.674 0-3.176 3.495-5.672 7.942-5.672.794 0 1.566.09 2.27.226 3.313.681 5.672 2.837 5.672 5.446z" fill="#A1D1FD"/><path class="p-FFD396" d="M19.991 16.41c-1.86 0-3.517.727-4.538 1.839-.726.749-1.135 1.702-1.135 2.7 0 1.021.431 1.952 1.135 2.723 1.044 1.09 2.678 1.816 4.538 1.816 3.132 0 5.673-2.043 5.673-4.539 0-2.496-2.541-4.538-5.673-4.538z" fill="#B9DFFC"/><path class="p-FF9100" d="M16.247 20.518c-.25.068-.522.136-.794.182V9.83c3.313.681 5.673 2.837 5.673 5.446 0 1.112-.431 2.201-1.27 3.11l-3.609 2.132zM28.183 30.026L30.906 36H15.453v-5.974h12.73zM28.183 5.065h-12.73V0h15.453l-2.723 5.065z" fill="#58ADE5"/><path class="p-FFB64C" d="M25.664 20.95c0 2.495-2.541 4.538-5.673 4.538-1.86 0-3.494-.727-4.538-1.816V18.25c1.021-1.112 2.678-1.838 4.538-1.838 3.132 0 5.673 2.042 5.673 4.538z" fill="#5FBEFF"/></svg>
